X:177
T:That's a Plenty
C:Pollack Arrangement: Jethro Burns (Album: Swing Low, Sweet Mandolin) 
N:Transcribed and TablEdited by Chris Hale Mandolin Melody & Chords Structure: A A B C C D C C D C C A A C C 
L:1/8
Q:1/4=190
M:4/4
K:F
"Intro"D2 E2 F2 G2 | A2 G2 F2 E2 | D4 [b4d4F4B,4] | [a8_d8E8A,8] |: "A part"d2 _d2 =d2 _d2 | 
d2 _d=d2_d c=B | BB A2 B2 A2 | B2 AB2A GF | EF GB A2 _D=D | EF GB AG FE |1 D_D =DE FE D_E | 
E_E =EA z4 :|2 D_D =DF ED _DE | D4 zc =Bc |] "B part"dc AF EC =B,_B, | [A2B,2] _A[GB,] zC =B,C | 
DC =B,C [G2A,2] _G[FA,] | z4 zE _E=E | G_G =GA BG AB | cd ea2g2g | (3fgf eg fe d_d | 
dc Ac AF D_E | EF GA Bc dA | cB GE C2 B,2 | A,B, CD GF EF | AF Ac f3_d | d_d =de fc AF | 
AF Ac ed _d=d | ef dc B_A =A2 | cA2F2F E_E | 
K:Bb
"C part (1st)"D2 E2 =EF zG | z2 A2 B2 c2 | _d=d2G4=B, | z[d3F3=B,3] [e2F2B,2] [d2F2B,2] | 
[d3=E3B,3][d4E4B,4]z | [c3E3A,3][d3E3A,3] [c2E2A,2] | DE =EF GF EF | BG A2 GF2B, | 
DC E_D =E=D F_E | GE AG BA cB | _d=d2G4=B, | z[d3F3=B,3] [e2F2B,2] [d2F2B,2] | 
[d3=E3B,3][d4E4B,4]z | [c3E3A,3][d3E3A,3] [c2E2A,2] | BF DB, A,B, DF | BF AB2d dd | 
|: "D part"d4 zd dd | d4 zd dd | dD3 _G2 A2 | d4 zf ff | f4 zf ff | f4 zf ff | 
fF3 A2 c2 | f8 | f6 =e2 | e6 d2 | c2 B2 A2 G2 |1 F7/1A, | "C part (2nd)"B,C DF GD FA | 
Bd fd gd f2 | g3a3 g2 | ga =bd' g'2 f'2 | e'=e'2c'4z | _d'=d'2c'4a | ba b_g =g_g =g_d | 
d_d =dA Bd fd | bf dB =ef ge | fd BG FG B_d | d_d =dg4_d | d_d =dG2[F2=B,2]E | 
=EF GA Bc dA | cA F=E _EF Ac | BF DB, A,B, DF | BF AB2d dd :|2 F7/1B, | "C part (3rd)"A,B, D_D =DF =EF | 
BA Bd _d=d f=e | fg _g=g a_a =af | zd =BG _GF d2 | zd _d=d BG Bd | cA F=E _EF Ac | 
BF DG EC DF | DB, (3GF=E cA2b | (3bgf =eg fd BG | (3FGA (3Bc_d =dB2_d | d_d =dg4_d | 
d_d =dG2[F2=B,2]E | =EF GA Bc dA | cA F=E _EF Ac | BF DB, A,B, DF | "back to A part"BF BA4z | 
D_D =D"3rd ending for A"F =ED _DE | D4 zB,2B, | "C part (4th)"D2 E2 =EF zG | z2 A2 B2 c2 | 
_d=d2G4=B, | z[d3F3=B,3] [e2F2B,2] [d2F2B,2] | [d3=E3B,3][d4E4B,4]z | [c3E3A,3][d3E3A,3] [c2E2A,2] | 
DE =EF GF EF | BG A2 GF2B, | DC E_D =E=D F_E | GE AG BA cB | _d=d2G4=B, | z[d3F3=B,3] [e2F2B,2] [d2F2B,2] | 
[d3=E3B,3][d4E4B,4]z | [c3E3A,3][d3E3A,3] [c2E2A,2] | BF DB, A,B, DF | Bd fb4z | 


